X:1
T:Sortez mes pleurs
T:Severin Cornet
T:Source : La fleur des chansons à 3---Louvain---P.Phalèse---1574. Editor : André Vierendeels (22/08/18) Notes : Original clefs : G2, C2, C3 Editorial accidentals above the staff 
T:Sortez mes pleurs
T:©
T:©
T:©
T:©
C:Severin Cornet
Z:©
%%score [ 1 [ 2 3 ] ]
L:1/8
Q:1/4=120
M:2/2
K:C
V:1 treble nm="Soprano" snm="S"
V:2 treble nm="Alto" snm="A"
V:3 treble-8 nm="Tenor" snm="T"
V:1
 d4 A2 f2 | e2 A2 c3 B/A/ | G2 A2 _B2 A2 | G4 E2 e2 | f3 e/d/ c2 d2 | fedc B2 A2 | B4 A2 A2 | %7
w: Sor- tez, mes|pleurs, has- tez _ _|_ vous de des-|cen- dre, ha-|tez _ _ _ vous|de _ _ _ _ des-|cen- dre, has-|
 c3 B/A/ G2 A2 | _B2 A2 G3 F | ED E2 D4 | z2 d2 e2 e2 | f4 d4 | ^c2 d2 edef | g2 e2 d3 c | %14
w: tez _ _ _ vous|de des- cen- *|* * * dre,|des- sus le|feu qui|me con- som- * * *|* m'et ard, _|
 BA B2 z4 | e4 A2 f2- | f2 d4 d2 | c2 f2 e2 d2 | ^c8 | z2 A2 B2 B2 | c2 c2 c3 c | f4 d4 | %22
w: _ _ _|qui me con-|* som- m'et|ard, _ _ _|_|où mon se-|cours ar- ri- ve-|ra trop|
 e4 z2 e2- | e2 d4 c2 | B4 A4 | G3 A B2 c2 | B4 A2 A2 | c3 c B2 A2 | B4 A4 | z2 e4 d2- | d2 c2 B4 | %31
w: tard, que|_ ce- pen-|dant, ie|se- ray mis en|cen- dre, ie|se- ray mis en|cen- dre,|que ce-|* pen- dant,|
 A4 G3 A | B2 c2 B4 | A3 A c2 A2 | G2 F2 E4 | ^F8 |] %36
w: ie se- ray|mis en cen-|dre, ie se- ray|mis en cen-|dre.|
V:2
 z8 | z2 D2 A,2 F2 | E2 E2 G2 F2 | E2 D2 ^C4 | D4 A2 B2 | A2 A2 ^G2 A2- | %6
w: |Sor- tez, mes|pleurs, has- tez vous|de des- cen-|dre, has- tez|vous de des- cen-|
"^#""^#  #""^#" AGGF/G/ A4 | E4 z2 E2 | G2 F2 E2 D2 | ^C4 D2 A2 | B2 B2 c4 | A4 F2 G2 | %12
w: |dre, has-|tez vous de des-|cen- dre, des-|sus le feu|qui me con-|
"^-natural" AGAB c4- | c2 BA B2 A2 | G3 F EDCB, | A,2 A4 D2 | _B4 A2 A2 | A2 D2 G2 F2 | E4 z2 E2 | %19
w: som- * * * *|* * * * m'et|ard, _ _ _ _ _|_ des- sus|le feu qui|me con- som- m'et|ard, où|
 ^F2 F2 G2 E2 | A3 A A4- | A4 B4 | c3 B/A/ G4 | z2 D2 E2 F2 | G4 z4 | C4 B,2 A,2 | E2 E2 ^C2 D2 | %27
w: mon se- cours ar-|ri- ve- ra|_ trop|tard, _ _ _|que ce- pen-|dant,|que ce- pen-|dant, ie se- ray|
 E3 F ^G2 A2 | ^G4 A4- | A4 z2 D2 | E2 F2 G4 | z4 C4 | B,2 A,2 E2 E2 | C2 D2 EC F2 |"^#" E2 D4 C2 | %35
w: mis _ _ en|cen- dre,|_ que|ce- pen- dant,|que|ce- pen- dant, ie|se- ray mis en cen-||
 D8 |] %36
w: dre.|
V:3
 z4 d4 | A2 f2 e2 A2 | c3 B/A/ G2 A2 | c2 G2 A4 | D2 d2 fedc | d2 d2 e2 f2 | e4 A4 | %7
w: Sor-|tez, mes pleurs, has-|tez _ _ _ vous|de des- cen-|dre, has- tez _ _ _|_ voys de des-|cen- dre,|
 z2 A2 c3 B/A/ | G2 A2 c2 G2 | A4 D4 | z4 A4 | D4 _B4 | A2 d2 c2 A2 | edef g2 d2 | e4 z2 e2- | %15
w: has- tez _ _|_ vous de des-|cen- dre|des-|sus le|feu qui me con-|som- * * * * m'et|ard, qui|
 e2 A2 f4 | d2 g2 f2 d2 | f3 e/d/ c2 d2 | A4 z2 A2 | d2 d2 G2 g2 | f6 f2 | d4 g4 | c4 z2 c2 | %23
w: _ me con-|som- m'et ard, qui|me con- * som- m'et|ard, où|mon se- cours ar-|ri- ve-|ra trop|tard, que|
 B4 A4 | e2 e2 ^c2 d2 |"^#" e3 f ^g2 a2 | ^g4 a3 a | A2 A2 e2 f2 | e4 A4 | z2 c2 B4 | A4 e2 e2 | %31
w: ce- pen-|dant, ie se- ray|mis _ _ en|cen- dre, ie|se- ray mis en|cen- dre,|que ce-|pen- dant, ie|
"^#" ^c2 d2 e3 f | ^g2 a2 g4 | a2 a2 A3 B | c2 d2 A4 | d8 |] %36
w: se- ray mis _|_ en cen-|dre, ie se- ray|mis en cen-|dre.|

